X: 22836
T: Lark In The Blue Summer Sky, The
R: jig
M: 6/8
K: Cmajor
|ed^c2 AA|BA^c Ace|zdA ^c^fe|^cAG Bcd|
BG^c2 AA|BA^c Ace|zdA ^ced|BGA z2e|
d^c2 AAB|A^cA ce2|dA^c^fec|AGB^cdB|
G^c2 AAB|A^cA ce2|dA^c edB|GA2 z^fg|
ag^f gfe|^fed e2d|A^ce ecA|GB^c dBG|
ag^f gfe|^fed e2^c|A^ce dBG|A3- ^fga|
g^fg fef|ede2- dA|^cee cAG|B^cd BGa|
g^fg fef|ede2-^cA|^ced BGA|z6||

